X: 1
T: Kyrie-Gloria-Credo Sine nomine / Kyrie
N: Derived from Ock1001a-Kyrie_Gloria_Credo_Sine_nomine-Kyrie.krn
C: Johannes Ockeghem
%%abc-version 2.0
%%abcx-abcm2ps-target-version 5.9.1 (29 Sep 2008)
%%abc-creator hum2abc beta
%%abcx-conversion-date 2019/02/17 07:26:13
%%abc-edited-by Jesse Rodin
%%abc-edited-by Jesse Rodin 8-17-2012
%%abcx-initial-encoding-date 2012/08/17/
%%humdrum-veritas 599752114
%%humdrum-veritas-data 470880069
%%linebreak <none>
%%barnumbers 0
L: 1/4
M: 3/1
Q: 1/2=120
V: 1 clef=treble
V: 2 clef=treble-8
V: 3 clef=bass
V: 4 clef=bass
V: 5 clef=bass
K: C
[V:1] C4D2F2E2D2 | 
[V:2] c3AB2A2G2F2 | 
[V:3] z12 | 
[V:4] z12 | 
[V:5] z12 | 
[V:1] E2E2D2C2A,G,A,2 | 
[V:2] E2z2G3ADG2^F | 
[V:3] z2C,2D,2E,F,2E,D,2 | 
[V:4] A,,4B,,2C,F,,2G,,D,2 | 
[V:5] z12 | 
[V:1] G,2z2z4z4 | 
[V:2] G2C2D2EF2E2D | 
[V:3] E,2z2z4z4 | 
[V:4] G,,2G,,2A,,B,,2C,2B,,2A,, | 
[V:5] z2E,,2D,,G,,2A,,E,,2F,,2 | 
[V:1] E3D/C/B,DCB,2A,2G, | 
[V:2] E2z2z4z4 | 
[V:3] G,2E,2D,2E,F,2E,2D, | 
[V:4] B,,2C,2G,,2C,D,A,,2B,,2 | 
[V:5] E,,2z2z4z4 | 
[V:1] CE2D2CD3F2D | 
[V:2] z2G2E2DF3/E/D/C/D2 | 
[V:3] E,2z2A,2F,A,2G,F,2 | 
[V:4] A,,2B,,2C,2A,,2F,,G,,A,,2 | 
[V:5] A,,2G,,2A,,2D,,2z2D,,2 | 
[V:1] C2z2z4z4 | 
[V:2] E2z2A2_BA2GAF | 
[V:3] E,2G,2E,2E,F,2E,2D, | 
[V:4] z2B,,2C,3/B,,/G,,C,2B,,A,,2 | 
[V:5] A,,2G,,2A,,F,,G,,A,,2E,,F,,2 | 
[V:1] E4F2GA2G2^F | 
[V:2] G2z2A2Gc2GA2 | 
[V:3] E,2z2z4z4 | 
[V:4] B,,2C,2D,2E,F,2E,D,2 | 
[V:5] E,,2E,,2D,,2G,,F,,2G,,D,,2 | 
[V:1] G3EF2ED2C2B, | 
[V:2] G2c2BAGA2G2F | 
[V:3] z2C,2D,2E,F,2E,D,2 | 
[V:4] E,2z2z4z4 | 
[V:5] z12 | 
[V:1] C2z2C2D2C2EF- | 
[V:2] G2z2A2G2c4 | 
[V:3] E,2z2E,2D,2E,2A,2 | 
[V:4] z2C,2A,,2B,,2A,,4 | 
[V:5] C,2z2z4z2A,,2 | 
[V:1] FDFE2D2CD2C2 | 
[V:2] d2c2B2A3FEF | 
[V:3] F,G,A,F,G,2E,2D,2z2 | 
[V:4] z2A,,2B,,2C,2A,,4 | 
[V:5] B,,2A,,2G,,2A,,2D,,2z2 | 
[V:1] _B,2CD3/C/B,A,B,2A,G,2 | 
[V:2] G2A2_BGAG2FD2 | 
[V:3] D,2F,2D,E,F,D,2C,_B,,2 | 
[V:4] _B,,2A,,2G,,2D,2G,,A,,B,,3/G,,/ | 
[V:5] G,,2F,,2G,,2D,,G,,3/D,,/F,,G,,2 | 
[V:1] A,12 |]  
[V:2] D4E8 |]  
[V:3] A,,12 |]  
[V:4] F,,4C,8 |]  
[V:5] D,,4A,,8 |]  



